dist/flags/s/788.svg

<svg width="16" height="12" viewBox="0 0 16 12" fill="none" xmlns="http://www.w3.org/2000/svg">
<mask id="mask0" mask-type="alpha" maskUnits="userSpaceOnUse" x="0" y="0" width="16" height="12">
<rect width="16" height="12" fill="white"/>
</mask>
<g mask="url(#mask0)">
<path fill-rule="evenodd" clip-rule="evenodd" d="M0 0V12H16V0H0Z" fill="#E31D1C"/>
<mask id="mask1" mask-type="alpha" maskUnits="userSpaceOnUse" x="0" y="0" width="16" height="12">
<path fill-rule="evenodd" clip-rule="evenodd" d="M0 0V12H16V0H0Z" fill="white"/>
</mask>
<g mask="url(#mask1)">
<path fill-rule="evenodd" clip-rule="evenodd" d="M8 10C10.2091 10 12 8.20914 12 6C12 3.79086 10.2091 2 8 2C5.79086 2 4 3.79086 4 6C4 8.20914 5.79086 10 8 10Z" fill="#F7FCFF"/>
<path fill-rule="evenodd" clip-rule="evenodd" d="M8.70135 8.82534C8.70135 8.82534 6.59316 8.25016 6.59316 5.98668C6.59316 3.72319 8.70135 3.09872 8.70135 3.09872C7.8296 2.76132 5.27842 3.27901 5.27842 5.98668C5.27842 8.69434 7.90077 9.18198 8.70135 8.82534ZM8.58528 5.49413L7.53936 5.87629L8.6635 6.26924L8.70135 7.3217L9.38549 6.50406L10.5135 6.58414L9.70079 5.92106L10.1903 4.96351L9.23414 5.28533L8.57174 4.45738L8.58528 5.49413Z" fill="#E31D1C"/>
</g>
</g>
</svg>

<svg width="16" height="12" fill="none" xmlns="http://www.w3.org/2000/svg">
  <mask id="a" maskUnits="userSpaceOnUse" x="0" y="0" width="16" height="12">
    <path fill="#fff" d="M0 0h16v12H0z"/>
  </mask>
  <g mask="url(#a)">
    <path fill-rule="evenodd" clip-rule="evenodd" d="M0 0v12h16V0H0z" fill="#E31D1C"/>
    <mask id="b" maskUnits="userSpaceOnUse" x="0" y="0" width="16" height="12">
      <path fill-rule="evenodd" clip-rule="evenodd" d="M0 0v12h16V0H0z" fill="#fff"/>
    </mask>
    <g mask="url(#b)" fill-rule="evenodd" clip-rule="evenodd">
      <path d="M8 10a4 4 0 100-8 4 4 0 000 8z" fill="#F7FCFF"/>
      <path d="M8.701 8.825S6.593 8.25 6.593 5.987c0-2.264 2.108-2.888 2.108-2.888-.871-.338-3.423.18-3.423 2.888 0 2.707 2.623 3.195 3.423 2.838zm-.116-3.33l-1.046.381 1.125.393.037 1.053.685-.818 1.128.08-.813-.663.49-.957-.957.321-.662-.828.013 1.037z" fill="#E31D1C"/>
    </g>
  </g>
</svg>
